src/animals-nature/animal-marine/1F41F.svg

<svg id="emoji" viewBox="0 0 72 72" xmlns="http://www.w3.org/2000/svg">
  <g id="grid">
    <path fill="#b3b3b3" d="M68,4V68H4V4H68m4-4H0V72H72V0Z"/>
    <path fill="none" stroke="#00a5ff" stroke-miterlimit="10" stroke-width="0.1" d="M12.923,10.9583H59.0769A1.9231,1.9231,0,0,1,61,12.8814V59.0352a1.9231,1.9231,0,0,1-1.9231,1.9231H12.9231A1.9231,1.9231,0,0,1,11,59.0352V12.8813A1.923,1.923,0,0,1,12.923,10.9583Z"/>
    <rect x="16" y="4" rx="2.2537" width="40" height="64" fill="none" stroke="#00a5ff" stroke-miterlimit="10" stroke-width="0.1"/>
    <rect x="16" y="4" rx="2.2537" width="40" height="64" transform="translate(72) rotate(90)" fill="none" stroke="#00a5ff" stroke-miterlimit="10" stroke-width="0.1"/>
    <circle cx="36" cy="36" r="29" fill="none" stroke="#00a5ff" stroke-miterlimit="10" stroke-width="0.1"/>
  </g>
  <g id="color">
    <path fill="#92D3F5" stroke="none" d="M16.1101,37.4612c0,0-5.1101-4.8074-4.0659-11.0726s13.5746,1.0442,14.6188,6.2652 c0,0,3.1326-5.221,8.3536-6.2652c0,0-1.0442-5.221,0-8.3536c0,0,11.4862-4.1768,15.663,6.2652c0,0,11.4862,2.0884,12.5304,11.4862 l-3.1326,2.0884l2.741,2.3495c0,0-0.126,6.9813-11.8755,10.1474c0,0-2.3517,7.3429-10.7053,5.2545l1.0442-5.221 c0,0-6.2652,1.0442-14.6188-8.3536c0,0-3.1326,9.3978-15.663,7.3094C11.0001,49.361,10.7782,41.2244,16.1101,37.4612z"/>
    <path fill="#61B2E4" stroke="none" d="M41.7805,30.9182c0,0-7.8664,4.3435-0.8652,11.0476"/>
  </g>
  <g id="hair"/>
  <g id="skin"/>
  <g id="skin-shadow"/>
  <g id="line">
    <path fill="none" stroke="#000000" stroke-linecap="round" stroke-linejoin="round" stroke-miterlimit="10" stroke-width="2" d="M16.1101,37.4612c0,0-5.1101-4.8074-4.0659-11.0726s13.5746,1.0442,14.6188,6.2652c0,0,3.1326-5.221,8.3536-6.2652 c0,0-1.0442-5.221,0-8.3536c0,0,11.4862-4.1768,15.663,6.2652c0,0,11.4862,2.0884,12.5304,11.4862l-3.1326,2.0884l2.741,2.3495 c0,0-0.126,6.9813-11.8755,10.1474c0,0-2.3517,7.3429-10.7053,5.2545l1.0442-5.221c0,0-6.2652,1.0442-14.6188-8.3536 c0,0-3.1326,9.3978-15.663,7.3094C11.0001,49.361,10.7782,41.2244,16.1101,37.4612z"/>
    <path fill="none" stroke="#000000" stroke-linecap="round" stroke-linejoin="round" stroke-miterlimit="10" stroke-width="2" d="M41,31c0,0-6,4-1,11"/>
  </g>
</svg>

<svg viewBox="0 0 72 72" xmlns="http://www.w3.org/2000/svg"><path fill="#b3b3b3" d="M68 4v64H4V4h64m4-4H0v72h72V0z"/><path fill="none" stroke="#00a5ff" stroke-miterlimit="10" stroke-width=".1" d="M12.923 10.958h46.154A1.923 1.923 0 0161 12.881v46.154a1.923 1.923 0 01-1.923 1.923H12.923A1.923 1.923 0 0111 59.035V12.881a1.923 1.923 0 011.923-1.923z"/><rect x="16" y="4" rx="2.254" width="40" height="64" fill="none" stroke="#00a5ff" stroke-miterlimit="10" stroke-width=".1"/><rect x="16" y="4" rx="2.254" width="40" height="64" transform="rotate(90 36 36)" fill="none" stroke="#00a5ff" stroke-miterlimit="10" stroke-width=".1"/><circle cx="36" cy="36" r="29" fill="none" stroke="#00a5ff" stroke-miterlimit="10" stroke-width=".1"/><path d="M16.11 37.461S11 32.654 12.044 26.39s13.575 1.044 14.619 6.265c0 0 3.133-5.221 8.354-6.265 0 0-1.045-5.221 0-8.354 0 0 11.486-4.177 15.663 6.265 0 0 11.486 2.089 12.53 11.486l-3.133 2.089 2.741 2.35s-.126 6.98-11.875 10.147c0 0-2.352 7.343-10.705 5.254l1.044-5.22s-6.265 1.043-14.619-8.354c0 0-3.133 9.397-15.663 7.309 0 0-.222-8.137 5.11-11.9zM41 31s-6 4-1 11" stroke-linecap="round" stroke-miterlimit="10" stroke-width="6" stroke="#fff" fill="none" stroke-linejoin="round"/><path fill="#92D3F5" d="M16.11 37.461S11 32.654 12.044 26.39s13.575 1.044 14.619 6.265c0 0 3.133-5.221 8.354-6.265 0 0-1.045-5.221 0-8.354 0 0 11.486-4.177 15.663 6.265 0 0 11.486 2.089 12.53 11.486l-3.133 2.089 2.741 2.35s-.126 6.98-11.875 10.147c0 0-2.352 7.343-10.705 5.254l1.044-5.22s-6.265 1.043-14.619-8.354c0 0-3.133 9.397-15.663 7.309 0 0-.222-8.137 5.11-11.9z"/><path fill="#61B2E4" d="M41.78 30.918s-7.866 4.344-.865 11.048"/><path d="M16.11 37.461S11 32.654 12.044 26.39s13.575 1.044 14.619 6.265c0 0 3.133-5.221 8.354-6.265 0 0-1.045-5.221 0-8.354 0 0 11.486-4.177 15.663 6.265 0 0 11.486 2.089 12.53 11.486l-3.133 2.089 2.741 2.35s-.126 6.98-11.875 10.147c0 0-2.352 7.343-10.705 5.254l1.044-5.22s-6.265 1.043-14.619-8.354c0 0-3.133 9.397-15.663 7.309 0 0-.222-8.137 5.11-11.9zM41 31s-6 4-1 11" fill="none" stroke="#000" stroke-linecap="round" stroke-linejoin="round" stroke-miterlimit="10" stroke-width="2"/></svg>
